X: 07016
T: CAROL'S REEL
C: Bob McQuillen 12 June 89
B: Bob's Note Book 7 #16
%R: reel
Z: 2020 John Chambers <jc:trillian.mit.edu>
M: C
L: 1/8
K: D
FE \
| D2A,D FAFE | DEFD EDB,A, | DFAd AGde | fafd e2dc |
| BGBd AFAd | BdAF | EDB,A, | DFAd fedB | AFEF D2 :|
|: de \
| f2fd edBA | defd edBA | fafd BAdB | AdAF E2FE |
| DFAF EGBG | ABcA d2fe | dAFA dBGB | AFEF D2 :|
%%begintext align
%% Carol Compton is from Philly -
%% She plays accordion and piano, and is one of (if not _the_)
%% moving force(s) of the great SPUDS Band down there.
%% She always makes me so welcome when I get to visit them
%% and we play a few tunes together - Thanks a lot, Carol!
%%endtext

%%sep 1 1 500

%%sep 1 1 500

